!!!!SEGMENT: T338_Bar-w32p82-83m2-1h52m1-9.krn
!!!COM: Bartók, Béla
!!!OTL: I: Allegro moderato
!!!AGN: Orchestral
!!!AGN-sub: Concerto
!!!CNT: Hungarian
!!!ODT: 1926
!!!OPR: Piano Concerto No. 1
!!!filename: T338_Bar-w32p82-83m2-1h52m1-9.krn
**kern	**dynam	**kern	**dynam	**kern	**dynam	**kern	**dynam	**kern	**dynam	**kern	**kern	**dynam	**kern	**dynam	**kern	**dynam	**kern	**dynam	**kern	**dynam	**kern	**dynam	**kern	**dynam	**kern	**dynam	**kern	**dynam	**kern	**dynam	**kern	**dynam	**kern	**dynam	**kern	**dynam	**kern	**dynam	**kern	**dynam	**kern	**dynam	**kern	**dynam
*grp:A	*	*grp:A	*	*grp:A	*	*grp:A	*	*grp:A	*	*grp:B	*grp:B	*	*grp:A	*	*grp:A	*	*grp:A	*	*grp:A	*	*grp:A	*	*grp:A	*	*grp:A	*	*grp:A	*	*grp:B	*	*grp:A	*	*grp:A	*	*grp:A	*	*grp:A	*	*grp:A	*	*grp:A	*	*grp:A	*
*part22	*	*part21	*	*part20	*	*part19	*	*part18	*	*part17	*part17	*	*part16	*	*part15	*	*part14	*	*part13	*	*part12	*	*part11	*	*part10	*	*part9	*	*part8	*	*part7	*	*part6	*	*part5	*	*part4	*	*part3	*	*part2	*	*part1	*
*staff23	*	*staff22	*	*staff21	*	*staff20	*	*staff19	*	*staff18	*staff17	*	*staff16	*	*staff15	*	*staff14	*	*staff13	*	*staff12	*	*staff11	*	*staff10	*	*staff9	*	*staff8	*	*staff7	*	*staff6	*	*staff5	*	*staff4	*	*staff3	*	*staff2	*	*staff1	*
*ICstr	*	*ICstr	*	*ICstr	*	*ICstr	*	*ICstr	*	*ICklav	*ICklav	*	*ICidio	*	*ICidio	*	*ICidio	*	*ICidio	*	*ICbras	*	*ICbras	*	*ICbras	*	*ICbras	*	*ICbras	*	*ICww	*	*ICww	*	*ICww	*	*ICww	*	*ICww	*	*ICww	*	*ICww	*
*Icbass	*	*Icello	*	*Iviola	*	*Ivioln	*	*Ivioln	*	*Ipiano	*Ipiano	*	*Ibdrum	*	*IdrumP	*	*IdrumP	*	*Itimpa	*	*Itromt	*	*Itromt	*	*Itromp	*	*Icor	*	*Icor	*	*Ifagot	*	*Ifagot	*	*Iclarb	*	*Iclars	*	*Icangl	*	*Ioboe	*	*Iflt	*
*I"Contrabass	*	*I"Violoncello	*	*I"Viola	*	*I"Violin II	*	*I"Violin I	*	*I"Piano	*I"Piano	*	*I"Bass Drum	*	*I"Snare Drum\n[with snares on]	*	*I"Snare Drum\n[with snares off]	*	*I"Timpani	*	*I"Trombone 3	*	*I"Trombone 1, 2	*	*I"Trumpet in C 1, 2	*	*I"Horn in F 2, 4	*	*I"Horn in F 1, 3	*	*I"Bassoon 2	*	*I"Bassoon 1	*	*I"Bass Clarinet in Bb	*	*I"Clarinet in Bb 1	*	*I"English Horn	*	*I"Oboe 1	*	*I"Flute 1, 2	*
*I'cb	*	*I'vc	*	*I'vla	*	*I'vn	*	*I'vn	*	*I'pf	*I'pf	*	*I'b-dr	*	*I'dr	*	*I'dr	*	*I'timp	*	*I'tn	*	*I'tn	*	*I'tp	*	*I'cor-fr	*	*I'cor-fr	*	*I'bn	*	*I'bn	*	*I'b-cl	*	*I'cl	*	*I'cor-en	*	*I'ob	*	*I'fl	*
*	*	*	*	*	*	*	*	*	*	*	*	*	*stria1	*	*stria1	*	*stria1	*	*	*	*	*	*	*	*	*	*	*	*	*	*	*	*	*	*	*	*	*	*	*	*	*	*	*
*clefF4	*	*clefF4	*	*clefC3	*	*clefG2	*	*clefG2	*	*clefF4	*clefG2	*	*clefX	*	*clefX	*	*clefX	*	*clefF4	*	*clefF4	*	*clefF4	*	*clefG2	*	*clefG2	*	*clefG2	*	*clefF4	*	*clefF4	*	*clefF4	*	*clefG2	*	*clefG2	*	*clefG2	*	*clefG2	*
*ITrd7c12	*	*	*	*	*	*	*	*	*	*	*	*	*	*	*	*	*	*	*	*	*	*	*	*	*	*	*ITrd4c7	*	*ITrd4c7	*	*	*	*	*	*ITrd1c2	*	*ITrd1c2	*	*ITrd4c7	*	*	*	*	*
*k[]	*	*k[]	*	*k[]	*	*k[]	*	*k[]	*	*k[]	*k[]	*	*k[]	*	*k[]	*	*k[]	*	*k[]	*	*k[]	*	*k[]	*	*k[]	*	*k[b-]	*	*k[b-]	*	*k[]	*	*k[]	*	*k[b-e-]	*	*k[b-e-]	*	*k[b-]	*	*k[]	*	*k[]	*
*	*	*	*	*	*	*	*	*	*	*	*	*	*C:	*	*C:	*	*C:	*	*	*	*	*	*	*	*	*	*	*	*	*	*	*	*	*	*	*	*	*	*	*	*	*	*	*
*M2/4	*	*M2/4	*	*M2/4	*	*M2/4	*	*M2/4	*	*M2/4	*M2/4	*	*M2/4	*	*M2/4	*	*M2/4	*	*M2/4	*	*M2/4	*	*M2/4	*	*M2/4	*	*M2/4	*	*M2/4	*	*M2/4	*	*M2/4	*	*M2/4	*	*M2/4	*	*M2/4	*	*M2/4	*	*M2/4	*
!!LO:REH:t=52
=1	=1	=1	=1	=1	=1	=1	=1	=1	=1	=1	=1	=1	=1	=1	=1	=1	=1	=1	=1	=1	=1	=1	=1	=1	=1	=1	=1	=1	=1	=1	=1	=1	=1	=1	=1	=1	=1	=1	=1	=1	=1	=1	=1	=1
!	!	!	!	!	!LO:DY:ed=brack	!	!LO:DY:ed=brack	!	!LO:DY:ed=brack	!	!	!LO:DY:ed=brack	!	!	!	!	!	!	!	!	!	!	!	!	!	!	!	!	!	!	!	!LO:DY:t=%s marc.	!	!	!	!LO:DY:ed=brack.	!	!	!	!	!	!	!LO:TX:t=[[quarter]=146]	!
2r	.	2r	.	8F#XL	pp	8GL 8d#X	pp	8cnL 8e	pp	8F#X]	8ccL 8ccc	mf <	2r	.	2r	.	8r	.	8DL	p	2r	.	2r	.	2r	.	2r	.	2r	.	4E~	mf	4r	.	4.DD	mf	2r	.	2r	.	2r	.	2r	.
.	.	.	.	8F#	.	8G 8d#	.	8c 8e	.	8dL	8eJ 8ee	mf	.	.	.	.	8Re/L	p	8D	.	.	.	.	.	.	.	.	.	.	.	.	.	.	.	.	.	.	.	.	.	.	.	.	.
.	.	.	.	8F#	.	8G 8d#	.	8c 8e	.	8c	4f#X 4ff#X	.	.	.	.	.	8r	.	8D	.	.	.	.	.	.	.	.	.	.	.	4F#X~	.	8r	.	.	.	.	.	.	.	.	.	.	.
!	!	!	!	!	!	!	!	!	!	!	!	!	!	!	!	!	!	!	!	!	!	!	!	!	!	!	!	!	!	!	!	!	!	!LO:DY:t=%s marc.	!	!	!	!	!	!	!	!	!	!
.	.	.	.	8F#J	.	8GJ 8d#	.	8cJ 8e	.	8EJ	.	.	.	.	.	.	8Re/J	.	8DJ	.	.	.	.	.	.	.	.	.	.	.	.	.	8DD	mf	8r	.	.	.	.	.	.	.	.	.
=2	=2	=2	=2	=2	=2	=2	=2	=2	=2	=2	=2	=2	=2	=2	=2	=2	=2	=2	=2	=2	=2	=2	=2	=2	=2	=2	=2	=2	=2	=2	=2	=2	=2	=2	=2	=2	=2	=2	=2	=2	=2	=2	=2	=2
2r	.	2r	.	8F#XL	.	8GL 8d#X	.	8cL 8e	.	4F#X	8ddL 8ddd	.	2r	.	2r	.	8r	.	8DL	.	2r	.	2r	.	2r	.	2r	.	2r	.	8G^	.	4EE~	.	4r	.	2r	.	2r	.	4r	.	2r	.
.	.	.	.	8F#	.	8G 8d#	.	8c 8e	.	.	8cc 8ccc	.	.	.	.	.	8Re/L	.	8D	.	.	.	.	.	.	.	.	.	.	.	4A~	.	.	.	.	.	.	.	.	.	.	.	.	.
.	.	.	.	8F#	.	8G 8d#	.	8c 8e	.	8dL	8e 8ee	.	.	.	.	.	8r	.	8D	.	.	.	.	.	.	.	.	.	.	.	.	.	4FF#X~	.	8r	.	.	.	.	.	8r	.	.	.
!	!	!	!	!	!	!	!	!	!	!	!	!	!	!	!	!	!	!	!	!	!	!	!	!	!	!	!	!	!	!	!	!	!	!	!	!LO:DY:t=%s marc.	!	!	!	!	!	!LO:DY:t=%s marc.	!	!
.	.	.	.	8F#J	.	8GJ 8d#	.	8cJ 8e	.	8cJ	[8f#XJ [8ff#X	.	.	.	.	.	8Re/J	.	8DJ	.	.	.	.	.	.	.	.	.	.	.	8B	.	.	.	8D	mf	.	.	.	.	8B	mf	.	.
=3	=3	=3	=3	=3	=3	=3	=3	=3	=3	=3	=3	=3	=3	=3	=3	=3	=3	=3	=3	=3	=3	=3	=3	=3	=3	=3	=3	=3	=3	=3	=3	=3	=3	=3	=3	=3	=3	=3	=3	=3	=3	=3	=3	=3
2r	.	2r	.	8F#XL	.	8GL 8d#X	.	8cL 8e	.	8E	8f#] 8ff#]	.	2r	.	2r	.	8r	.	8DL	.	2r	.	2r	.	2r	.	2r	.	2r	.	4c	.	8GG^	.	4EX~	.	2r	.	2r	.	4c~	.	2r	.
.	.	.	.	8F#	.	8G 8d#	.	8c 8e	.	4F#X	8ddL 8ddd	.	.	.	.	.	8Re/L	.	8D	.	.	.	.	.	.	.	.	.	.	.	.	.	4AA~	.	.	.	.	.	.	.	.	.	.	.
.	.	.	.	8F#	.	8G 8d#	.	8c 8e	.	.	8cc 8ccc	.	.	.	.	.	8r	.	8D	.	.	.	.	.	.	.	.	.	.	.	8r	.	.	.	4F#X~	.	.	.	.	.	4d~	.	.	.
.	.	.	.	8F#J	.	8GJ 8d#	.	8cJ 8e	.	8d	8eJ 8ee	.	.	.	.	.	8Re/J	.	8DJ	.	.	.	.	.	.	.	.	.	.	.	8CC	.	8BB	.	.	.	.	.	.	.	.	.	.	.
=4	=4	=4	=4	=4	=4	=4	=4	=4	=4	=4	=4	=4	=4	=4	=4	=4	=4	=4	=4	=4	=4	=4	=4	=4	=4	=4	=4	=4	=4	=4	=4	=4	=4	=4	=4	=4	=4	=4	=4	=4	=4	=4	=4	=4
2r	.	2r	.	8F#XL	.	8GL 8d#X	.	8cL 8e	.	8cL	4f#X 4ff#X	.	2r	.	2r	.	8r	.	8DL	.	2r	.	2r	.	2r	.	2r	.	2r	.	4DD~	.	4C~	.	8G^	.	4r	.	4r	.	8e^	.	2r	.
.	.	.	.	8F#	.	8G 8d#	.	8c 8e	.	8EJ	.	.	.	.	.	.	8Re/L	.	8D	.	.	.	.	.	.	.	.	.	.	.	.	.	.	.	4A~	.	.	.	.	.	4f#X~	.	.	.
.	.	.	.	8F#	.	8G 8d#	.	8c 8e	.	4F#X	8ddL 8ddd	.	.	.	.	.	8r	.	8D	.	.	.	.	.	.	.	.	.	.	.	4EE~	.	4D~	.	.	.	8r	.	8r	.	.	.	.	.
!	!	!	!	!	!	!	!	!	!	!	!	!	!	!	!	!	!	!	!	!	!	!	!	!	!	!	!	!	!	!	!	!	!	!	!	!	!	!LO:DY:t=%s marc.	!	!LO:DY:t=%s marc.	!	!	!	!
.	.	.	.	8F#J	.	8GJ 8d#	.	8cJ 8e	.	.	8ccJ 8ccc	.	.	.	.	.	8Re/J	.	8DJ	.	.	.	.	.	.	.	.	.	.	.	.	.	.	.	8BX	.	8g	mf	8BX	mf	8g	.	.	.
=5	=5	=5	=5	=5	=5	=5	=5	=5	=5	=5	=5	=5	=5	=5	=5	=5	=5	=5	=5	=5	=5	=5	=5	=5	=5	=5	=5	=5	=5	=5	=5	=5	=5	=5	=5	=5	=5	=5	=5	=5	=5	=5	=5	=5
*	*	*	*	*	*	*	*	*	*	*	*	*	*	*	*	*	*	*	*	*	*	*	*	*	*	*	*^	*	*^	*	*	*	*	*	*	*	*	*	*	*	*	*	*	*
!	!	!	!	!	!	!	!	!	!	!	!	!	!	!	!	!	!	!	!	!	!	!	!	!	!	!	!LO:TX:a:t=[con sord.]	!	!	!LO:TX:a:t=con sord.	!	!	!	!	!	!	!	!	!	!	!	!	!	!	!	!
2r	.	2r	.	8F#XL	<	8GL 8d#X	<	8cL 8e	<	8DL 8d	8e 8ee	.	2r	.	2r	.	8r	.	8DL	<	2r	.	2r	.	2r	.	4r	2rD	.	8r	2rf	.	8FF#X^	<	8E^	<	4c~	<	4a~	<	4c~	<	4a~	<	2r	.
!	!	!	!	!	!	!	!	!	!	!	!	!	!	!	!	!	!	!	!	!	!	!	!	!	!	!	!	!	!	!	!	!LO:DY:a	!	!	!	!	!	!	!	!	!	!	!	!	!	!
.	.	.	.	8F#	.	8G 8d#	.	8c 8e	.	8C 8c	4f#X 4ff#X	.	.	.	.	.	8Re/L	<	8D	.	.	.	.	.	.	.	.	.	.	8e	.	p	4GG~	.	4F#X~	.	.	.	.	.	.	.	.	.	.	.
.	.	.	.	8F#	.	8G 8d#	.	8c 8e	.	8EE 8E	.	.	.	.	.	.	8r	.	8D	.	.	.	.	.	.	.	8r	.	.	4d~^	.	.	.	.	.	.	4d~	.	4bX~	.	4d~	.	4b~	.	.	.
.	.	.	.	8F#J	.	8GJ 8d#	.	8cJ 8e	.	[8FF#XJ [8F#X	8d 8dd	.	.	.	.	.	8Re/J	.	8DJ	.	.	.	.	.	.	.	8AA	.	f	.	.	.	8AA	.	8G	.	.	.	.	.	.	.	.	.	.	.
=6	=6	=6	=6	=6	=6	=6	=6	=6	=6	=6	=6	=6	=6	=6	=6	=6	=6	=6	=6	=6	=6	=6	=6	=6	=6	=6	=6	=6	=6	=6	=6	=6	=6	=6	=6	=6	=6	=6	=6	=6	=6	=6	=6	=6	=6	=6
*	*	*	*	*	*	*	*	*	*	*	*	*	*	*	*	*	*	*	*	*	*	*	*^	*	*	*	*	*	*	*	*	*	*	*	*	*	*	*	*	*	*	*	*	*	*	*
!	!	!	!	!	!	!	!	!	!	!	!	!	!	!	!	!	!	!	!	!	!	!	!LO:TX:a:t=con sord.	!	!	!	!	!	!	!	!	!	!	!	!	!	!	!	!	!	!	!	!	!	!	!	!
2r	.	2r	.	8F#XL	.	8GL 8d#X	.	8cL 8e	.	8FF#] 8F#]	8cL 8cc	.	2r	.	2r	.	8r	.	8DL	.	2r	.	8r	2rG	.	2r	.	4BBX~	2rD	.	4cc~	2rf	.	4BB~	.	4A~	.	8eX^	.	8cc^	.	8e^	.	8cc^	.	2r	.
.	.	.	.	8F#	.	8G 8d#	.	8c 8e	.	8DL	8E 8e	.	.	.	.	.	8Re/L	.	8D	.	.	.	8d	.	p	.	.	.	.	.	.	.	.	.	.	.	.	4f#X~	.	4dd~	.	4f#X~	.	4dd~	.	.	.
.	.	.	.	8F#	.	8G 8d#	.	8c 8e	.	8C	8F#X 8f#X	.	.	.	.	.	8r	.	8D	.	.	.	4c~	.	.	.	.	4C~	.	.	8bX^^	.	.	4C~	.	4B~	.	.	.	.	.	.	.	.	.	.	.
.	.	.	.	8F#J	.	8GJ 8d#	.	8cJ 8e	.	8EEJ	8dJ 8dd	.	.	.	.	.	8Re/J	.	8DJ	.	.	.	.	.	.	.	.	.	.	.	[8a~L	.	.	.	.	.	.	8g	.	8eeX	.	8g	.	8ee	.	.	.
=7	=7	=7	=7	=7	=7	=7	=7	=7	=7	=7	=7	=7	=7	=7	=7	=7	=7	=7	=7	=7	=7	=7	=7	=7	=7	=7	=7	=7	=7	=7	=7	=7	=7	=7	=7	=7	=7	=7	=7	=7	=7	=7	=7	=7	=7	=7	=7
!	!	!	!	!	!	!	!	!	!	!	!	!	!	!	!	!	!	!	!	!	!	!	!	!	!	!	!	!	!	!	!	!	!	!	!	!	!	!	!	!	!	!	!	!	!	!LO:TX:a:t=a 2	!
!	!	!	!	!	!	!	!	!	!	!	!	!	!	!	!	!	!	!	!	!	!	!	!	!	!	!	!	!	!	!	!	!	!	!	!	!	!	!L	!	!	!	!	!	!	!	!	!LO:DY:t=%s cresc.
!	!	!	!	!	!	!	!	!	!	!	!	!	!	!	!	!	!	!	!	!	!	!	!	!	!	!	!	!	!	!	!	!	!	!	!	!	!	!	!	!	!	!	!	!	!	!	!LO:HP:t=
2r	.	2r	.	8F#XL 8c	.	8GL 8d#X	.	8eL 8g	.	12FF#XL	12cL 12cc	.	2r	.	2r	.	8r	.	8DL	.	2r	.	4B~	2rGG	.	2r	.	4D~	2rD	.	8aJ]	2rf	.	4D~	.	4c~	.	4c~	<	8ff#X^	.	8a^	.	8a^	.	8ff#X^	f <
.	.	.	.	.	.	.	.	.	.	12GG	12B 12b	.	.	.	.	.	.	.	.	.	.	.	.	.	.	.	.	.	.	.	.	.	.	.	.	.	.	.	.	.	.	.	.	.	.	.	.
.	.	.	.	8F# 8c	.	8G 8d#	.	8e 8g	.	.	.	.	.	.	.	.	8Re/L	.	8D	.	.	.	.	.	.	.	.	.	.	.	8g	.	.	.	.	.	.	.	.	4gg~	.	4bX~	.	4b~	.	4gg~	.
.	.	.	.	.	.	.	.	.	.	12AAJ	12AJ 12a	.	.	.	.	.	.	.	.	.	.	.	.	.	.	.	.	.	.	.	.	.	.	.	.	.	.	.	.	.	.	.	.	.	.	.	.
!	!	!	!	!	!	!	!	!	!	!	!	!	!	!	!	!	!	!	!	!	!	!	!	!	!	!	!	!L	!	!LO:HP:t=%s molto	!	!	!LO:HP:a:t=%s molto	!	!	!	!	!	!	!	!	!	!	!	!	!	!
.	.	.	.	8F# 8c	.	8G 8d#	.	8e 8g	.	12GGL 12G	12BL 12b	.	.	.	.	.	8r	.	8D	.	.	.	4A~	.	<	.	.	4E~	.	<	8f#X^^	.	<	4E~	.	4d~	.	4d~	.	.	.	.	.	.	.	.	.
.	.	.	.	.	.	.	.	.	.	12FF# 12F#X	12c 12cc	.	.	.	.	.	.	.	.	.	.	.	.	.	.	.	.	.	.	.	.	.	.	.	.	.	.	.	.	.	.	.	.	.	.	.	.
.	.	.	.	8F#J 8c	.	8GJ 8d#	.	8eJ 8g	.	.	.	.	.	.	.	.	8Re/J	.	8DJ	.	.	.	.	.	.	.	.	.	.	.	[8e~L	.	.	.	.	.	.	.	.	8aa	.	8cc	.	8cc	.	8aa	.
.	.	.	.	.	.	.	.	.	.	12EEJ 12E	12dJ 12dd	.	.	.	.	.	.	.	.	.	.	.	.	.	.	.	.	.	.	.	.	.	.	.	.	.	.	.	.	.	.	.	.	.	.	.	.
*	*	*	*	*	*	*	*	*	*	*	*	*	*	*	*	*	*	*	*	*	*	*	*	*	*	*	*	*	*	*	*	*	*	*	*	*	*	*	*	*	*	*	*	*	*	*	*
=8	=8	=8	=8	=8	=8	=8	=8	=8	=8	=8	=8	=8	=8	=8	=8	=8	=8	=8	=8	=8	=8	=8	=8	=8	=8	=8	=8	=8	=8	=8	=8	=8	=8	=8	=8	=8	=8	=8	=8	=8	=8	=8	=8	=8	=8	=8	=8
!	!LO:DY:t=%s cresc. molto	!	!LO:DY:t=%s cresc. molto	!	!	!	!	!	!	!	!	!	!	!	!	!	!	!	!	!	!	!	!	!	!	!	!	!	!	!	!	!	!	!	!	!	!	!	!	!	!	!	!	!	!	!	!
!	!LO:HP:t=  	!	!LO:HP:t= 	!	!	!	!	!	!	!	!	!	!	!	!	!	!	!	!	!	!	!	!	!	!	!	!	!	!	!	!	!	!	!	!	!	!	!	!	!	!	!	!	!	!	!	!
8F#XL	p <	8F#XL	p <	8GL 8d#X	.	8cL 8e	.	8gL 8cc	.	12DDL 12D	12eL 12ee	.	2r	.	2r	.	8r	.	8DL	.	2r	.	4.G	2rGG	.	2r	.	8F#X^	2rD	.	8eJ/]	2rf	.	8F#X^	.	4e~	.	4eX~	.	8bbX^	.	8dd^	.	8dd^	.	8bb^	.
.	.	.	.	.	.	.	.	.	.	12CC 12C	12f#X 12ff#X	.	.	.	.	.	.	.	.	.	.	.	.	.	.	.	.	.	.	.	.	.	.	.	.	.	.	.	.	.	.	.	.	.	.	.	.
8F#	.	8F#	.	8G 8d#	.	8c 8e	.	8g 8cc	.	.	.	.	.	.	.	.	8Re/L	.	8D	.	.	.	.	.	.	.	.	4G~	.	.	8d	.	.	4G~	.	.	.	.	.	4ccc~	.	4ee~	.	4ee~	.	4ccc~	.
.	.	.	.	.	.	.	.	.	.	12BBBJ 12BB	12gJ 12gg	.	.	.	.	.	.	.	.	.	.	.	.	.	.	.	.	.	.	.	.	.	.	.	.	.	.	.	.	.	.	.	.	.	.	.	.
8F#	.	8F#	.	8G 8d#	.	8c 8e	.	8g 8cc	.	12AAAL 12AA	16aLL 16aa	.	.	.	.	.	8r	.	8D	.	.	.	.	.	.	.	.	.	.	.	4c~	.	.	.	.	4f#X~	.	4f#X~	.	.	.	.	.	.	.	.	.
.	.	.	.	.	.	.	.	.	.	.	16b 16bb	.	.	.	.	.	.	.	.	.	.	.	.	.	.	.	.	.	.	.	.	.	.	.	.	.	.	.	.	.	.	.	.	.	.	.	.
.	.	.	.	.	.	.	.	.	.	12GGG 12GG	.	.	.	.	.	.	.	.	.	.	.	.	.	.	.	.	.	.	.	.	.	.	.	.	.	.	.	.	.	.	.	.	.	.	.	.	.
8F#J	.	8F#J	.	8GJ 8d#	.	8cJ 8e	.	8gJ 8cc	.	.	16cc 16ccc	.	.	.	.	.	8Re/J	.	8DJ	.	.	.	8F#X	.	.	.	.	8A	.	.	.	.	.	8A	.	.	.	.	.	8ddd	.	8ff#X	.	8ff#X	.	8ddd	.
.	.	.	.	.	.	.	.	.	.	12FFF#XJ 12FF#X	.	.	.	.	.	.	.	.	.	.	.	.	.	.	.	.	.	.	.	.	.	.	.	.	.	.	.	.	.	.	.	.	.	.	.	.	.
.	.	.	.	.	.	.	.	.	.	.	16ddJJ 16ddd	.	.	.	.	.	.	.	.	.	.	.	.	.	.	.	.	.	.	.	.	.	.	.	.	.	.	.	.	.	.	.	.	.	.	.	.
*	*	*	*	*	*	*	*	*	*	*	*	*	*	*	*	*	*	*	*	*	*	*	*	*	*	*	*	*v	*v	*	*	*	*	*	*	*	*	*	*	*	*	*	*	*	*	*	*
*	*	*	*	*	*	*	*	*	*	*	*	*	*	*	*	*	*	*	*	*	*	*	*	*	*	*	*	*	*	*v	*v	*	*	*	*	*	*	*	*	*	*	*	*	*	*	*
=9	=9	=9	=9	=9	=9	=9	=9	=9	=9	=9	=9	=9	=9	=9	=9	=9	=9	=9	=9	=9	=9	=9	=9	=9	=9	=9	=9	=9	=9	=9	=9	=9	=9	=9	=9	=9	=9	=9	=9	=9	=9	=9	=9	=9	=9
!	!	!	!	!	!	!	!	!	!	!	!	!	!	!	!	!	!	!LO:DY:a	!	!	!	!	!	!	!	!	!	!LO:TX:a:t=senza sord.	!	!LO:TX:a:t=senza sord.	!	!	!	!	!	!	!	!	!	!	!	!	!	!	!
4r	.	4r	.	4r	.	4r	.	4r	.	4EEE^^ 4FFF#X 4BBB 4EE	4ee^^ 4ff#X 4bb 4eee	ff	4r	.	4r	.	4Re/	f	4E	.	4r	.	4ryy@	4r	.	4r	.	4r	.	4r	.	4r	.	4r	.	4r	.	4r	.	4r	.	4r	.	4r	.
!	!	!	!	!	!	!	!	!	!	!	!	!	!	!	!	!	!	!LO:DY:a	!	!	!	!	!	!	!	!	!	!	!	!	!	!	!	!	!	!	!	!	!	!	!	!	!	!	!
8EEE 8EE	ff	8E 8B 8f#X	ff	8F#X 8e	ff	8f#X 8ee 8bb	ff	8b 8ff#X 8eee	ff	4r	4r	.	8Re/	ff	4Re/	ff	4Re/	ff	4r	.	8E	ff	8B	8F#X	ff	8e 8ee	ff	8BX 8e	ff	8f#X 8bX	ff	8EE	ff	8EE	ff	8f#X	ff	8eeeX	ff	8bX	ff	8bb	ff	8bb 8eee	ff
8r	.	8r	.	8r	.	8r	.	8r	.	.	.	.	8r	.	.	.	.	.	.	.	8r	.	8ryy@	8r	.	8r	.	8r	.	8r	.	8r	.	8r	.	8r	.	8r	.	8r	.	8r	.	8r	.
*	*	*	*	*	*	*	*	*	*	*	*	*	*	*	*	*	*	*	*	*	*	*	*v	*v	*	*	*	*	*	*	*	*	*	*	*	*	*	*	*	*	*	*	*	*	*
==	==	==	==	==	==	==	==	==	==	==	==	==	==	==	==	==	==	==	==	==	==	==	==	==	==	==	==	==	==	==	==	==	==	==	==	==	==	==	==	==	==	==	==	==
*-	*-	*-	*-	*-	*-	*-	*-	*-	*-	*-	*-	*-	*-	*-	*-	*-	*-	*-	*-	*-	*-	*-	*-	*-	*-	*-	*-	*-	*-	*-	*-	*-	*-	*-	*-	*-	*-	*-	*-	*-	*-	*-	*-	*-
!!!system-decoration: [(s1,s2,s3,s4,s5,s6,s7)],[(s8,s9,s10,s11,s12)]<s13>{(s14,s15)}<s16>{(s17,s18)}[(s19,s20,s21,s22,s23)]
!!!EED: Claudio de Freitas
!!!EEV: 2022/01/28
!!!EED2: Jason Lee
!!!Suter_Work_ID: Bar-32
!!!Suter_Example_Number: 338
!!!Suter_Example_ID: Bar-32/82-83/2-1[52]1-9
!!!Premiere_Location: Frankfurt,Germany
!!!Other_Tsigs: none
!!!Full_Unit_Duration: 9:18
!!!First_Publication_Year: 1927
!!!First_Public_Performance_Year: 1927
!!!Example_Total_Measures: 11
!!!Example_Timestamp_Duration: 12
!!!Example_Start_Tsig_Type: simple duple
!!!Example_Start_Tsig_Mean_Beat_Rate: 96
!!!Example_Start_Tsig_Beat_Rate: 96
!!!Example_Start_Tsig_Beat: quarter
!!!Example_Start_Tsig: 2/4
!!!Example_Start_Timestamp: 9:06
!!!Example_Start_Tempo_Expression: [Tempo I (Allegro moderato)]
!!!Example_Start_Notated_Beat_Rate: [100-92]
!!!Example_Start_Notated_Beat: [quarter]
!!!Example_Start_Measure: 472
!!!Example_Metadata_Validated: Y
!!!Example_End_Timestamp: 9:18
!!!Example_End_Measure: 482
!!!Example_Dataset: T
!!!Editorial_Comments: Example Start Notated Beat and Example Start Notated Beat Rate [quarter=100-92] based on most recent notated beat rate (SWFU, m. 375). Example Start Tempo Expression [Tempo I (Allegro moderato)] based on most recent notated tempo expressions (SWFU, m. 1 and m. 375).
!!!Death_Place: New York,United States
!!!Death_Date: 26-Sep-1945
!!!Changing_Tsig: no
!!!Birth_Place: Sînnicolau Mare (Nagyszentmiklós),Romania (Hungary)
!!!Birth_Date: 25-Mar-1881
!!!Audio_Example_Quarter_Note_Tempo:
!!!Audio_Example_Duration:
!!!EEV2: 2022/03/14
